P3
10 10
255
196 120 68 196 120 68 196 120 68 196 120 68 196 120 68 196 120 68 196 120 68 196 120 68 196 120 68 196 120 68
196 120 68 196 120 68 196 120 68 196 120 68 196 120 68 196 120 68 196 120 68 196 120 68 196 120 68 196 120 68
196 120 68 196 120 68 196 120 68 196 120 68 196 120 68 196 120 68 196 120 68 196 120 68 196 120 68 196 120 68
196 120 68 196 120 68 196 120 68 196 120 68 196 120 68 196 120 68 196 120 68 196 120 68 196 120 68 196 120 68
196 120 68 196 120 68 196 120 68 196 120 68 196 120 68 196 120 68 196 120 68 196 120 68 196 120 68 196 120 68
196 120 68 196 120 68 196 120 68 196 120 68 196 120 68 196 120 68 196 120 68 196 120 68 196 120 68 196 120 68
196 120 68 196 120 68 196 120 68 196 120 68 196 120 68 196 120 68 196 120 68 196 120 68 196 120 68 196 120 68
196 120 68 196 120 68 196 120 68 196 120 68 196 120 68 196 120 68 196 120 68 196 120 68 196 120 68 196 120 68
196 120 68 196 120 68 196 120 68 196 120 68 196 120 68 196 120 68 196 120 68 196 120 68 196 120 68 196 120 68
196 120 68 196 120 68 196 120 68 196 120 68 196 120 68 196 120 68 196 120 68 196 120 68 196 120 68 196 120 68
