P3
8 12
255
205 188 168 205 188 168 205 188 168 205 188 168 205 188 168 205 188 168 205 188 168 205 188 168
205 188 168 205 188 168 205 188 168 205 188 168 205 188 168 205 188 168 205 188 168 205 188 168
205 188 168 205 188 168 205 188 168 205 188 168 205 188 168 205 188 168 205 188 168 205 188 168
205 188 168 205 188 168 205 188 168 205 188 168 205 188 168 205 188 168 205 188 168 205 188 168
205 188 168 205 188 168 205 188 168 205 188 168 205 188 168 205 188 168 205 188 168 205 188 168
205 188 168 205 188 168 205 188 168 205 188 168 205 188 168 205 188 168 205 188 168 205 188 168
205 188 168 205 188 168 205 188 168 205 188 168 205 188 168 205 188 168 205 188 168 205 188 168
205 188 168 205 188 168 205 188 168 205 188 168 205 188 168 205 188 168 205 188 168 205 188 168
205 188 168 205 188 168 205 188 168 205 188 168 205 188 168 205 188 168 205 188 168 205 188 168
205 188 168 205 188 168 205 188 168 205 188 168 205 188 168 205 188 168 205 188 168 205 188 168
205 188 168 205 188 168 205 188 168 205 188 168 205 188 168 205 188 168 205 188 168 205 188 168
205 188 168 205 188 168 205 188 168 205 188 168 205 188 168 205 188 168 205 188 168 205 188 168
